X: 32
T: String Quartet No. 8 in E Minor, Op. 59, No. 2 mvt 3
C: Ludwig van Beethoven
%%abc-version 2.0
%%abcx-abcm2ps-target-version 5.9.1 (29 Sep 2008)
%%abc-creator hum2abc beta
%%abcx-conversion-date 2021/01/27 10:01:16
%%gracespace 0 6 6
%%humdrum-veritas 3922624170
%%humdrum-veritas-data 1642287741
%%linebreak <none>
%%barnumbers 0
L: 1/8
M: 3/4
N: Derived from quartet08-3.krn
Q: "Allegretto" 1/4=100
%%staves [1 2 3 4]
V: 1 clef=treble
V: 2 clef=treble
V: 3 clef=alto
V: 4 clef=bass
K: G
[V:1] .E.B2<e2g ]|:  
[V:2] B,2z GG z ]|:  
[V:3] G,2z EE z ]|:  
[V:4] E,,2z2z2 ]|:  
[V:1] z .f2<^d2B | 
[V:2] z2z FF z | 
[V:3] z2z ^DD z | 
[V:4] B,,2z2z2 | 
[V:1] z .B2<c2A | 
[V:2] z2z FF z | 
[V:3] z2z ^DD z | 
[V:4] B,,2z2z2 | 
[V:1] z A2<F2G- | 
[V:2] z2z EE z | 
[V:3] z2z B,B, z | 
[V:4] E,2z2z2 | 
[V:1] G.B2<e2g- | 
[V:2] z2z GG z | 
[V:3] z2z EE z | 
[V:4] E,2z2z2 | 
[V:1] gg2<^c'2e'- |[1 
[V:2] z2z GG z | 
[V:3] z2z EE z | 
[V:4] ^C,2z2z2 | 
[V:1] e'.e'2<g'2^c- | 
[V:2] z [A,G][A,G] zz2 | 
[V:3] z [^CE][CE] zz2 | 
[V:4] A,,2z2z2 | 
[V:1] c2d2.^d2 | 
[V:2] z2.[A,2F2].[B,2A2] | 
[V:3] z2.D2.F2 | 
[V:4] D,2z2B,,2 | 
[V:1] .e.B2<e2g :|][2 
[V:2] [B,2G2]z GG z :|]  
[V:3] E2z EE z :|]  
[V:4] E,,2z2z2 :|]  
[V:1] ^c2=d2d2- | 
[V:2] z2[A,2F2]D2- | 
[V:3] z2D2z2 | 
[V:4] D,2z2z2 | 
[V:1] d.d2<_e2=c ]|: 
[V:2] D.D2<_E2C ]|:  
[V:3] z2z .A, .A, z ]|:  
[V:4] F,,2z .F, .F, z ]|:  
[V:1] z .c2<^A2B | 
[V:2] z .C2<^A,2B, | 
[V:3] z2z D,D, z | 
[V:4] G,,2z .G,.G,2 | 
[V:1] z .=e2<=f2d | 
[V:2] z .=E2<=F2D | 
[V:3] z2z B,B, z | 
[V:4] ^G,,2z .^G,.G,2 | 
[V:1] z .d2<B2c | 
[V:2] z .D2<B,2C | 
[V:3] z2z E,E, z | 
[V:4] A,,2z A,A, z | 
[V:1] e6- | 
[V:2] z2z CC z | 
[V:3] z E2<A2c | 
[V:4] A,,2z A,A, z | 
[V:1] e6- | 
[V:2] z2z B,B, z | 
[V:3] z c2<d2B | 
[V:4] ^G,,2z ^G,G, z | 
[V:1] e6- | 
[V:2] z2z ^G,G, z | 
[V:3] z ^G2<E2D | 
[V:4] E,,2z E,E, z | 
[V:1] e4e2 | 
[V:2] z dBc_Bc | 
[V:3] z DB,C_B,C | 
[V:4] A,,2z A,,F,,F,, | 
[V:1] .=f.c2<=f2a | 
[V:2] .A.C2<=F2A | 
[V:3] [C,6C6]- | 
[V:4] =F,,2z .C,,.=F,,2 | 
[V:1] z .a2<_b2g | 
[V:2] z .A2<_B2G | 
[V:3] [C,6C6]- | 
[V:4] C,,2z C,,G,,2 | 
[V:1] z e2<c2_B | 
[V:2] z E2<C2_B, | 
[V:3] [C,6C6]- | 
[V:4] C,,2z C,,E,,2 | 
[V:1] z _B2<^G2G | 
[V:2] z _B,2<^G,2G, | 
[V:3] [C,6C6]- | 
[V:4] C,,2z C,,=F,,2 | 
[V:1] [C2A2]>.[C2A2].[C2A2] | 
[V:2] [A,2=F2]>.[A,2F2].[A,2F2] | 
[V:3] [C,C].C,2<=F,2A, | 
[V:4] z .C,,2<=F,,2A,, | 
[V:1] [C2A2]>.[C2A2].[C2A2] | 
[V:2] [A,2=F2]>.[A,2F2].[A,2F2] | 
[V:3] z .C,2<=F,2A, | 
[V:4] z .C,,2<=F,,2A,, | 
[V:1] [C2A2]>.[C2A2].[C2A2] | 
[V:2] [A,2=F2]>.[A,2F2].[A,2F2] | 
[V:3] z .C,2<=F,2A, | 
[V:4] z .C,,2<=F,,2A,, | 
[V:1] [C6A6]- | 
[V:2] ^D6- | 
[V:3] [F,6A,6]- | 
[V:4] B,,6- | 
[V:1] [CA]c'2<b2a- | 
[V:2] Ec2<B2A- | 
[V:3] [F,2A,2]z FF z | 
[V:4] B,,2z ^DD z | 
[V:1] a.a2<a2e- | 
[V:2] A.A2<A2E- | 
[V:3] z2z GG z | 
[V:4] E,2z EE z | 
[V:1] e.e2<^d2f- | 
[V:2] E.E2<^D2F- | 
[V:3] z2z AA z | 
[V:4] B,2z FF z | 
[V:1] f^de2e'2 | 
[V:2] F^DE2[_B2g2] | 
[V:3] G2z2[C,2C2]- | 
[V:4] E,2z2C,,2- | 
[V:1] =f'2>.[c2a2].[c2a2] | 
[V:2] [A2=f2]>.[A2f2].[A2f2] | 
[V:3] [C,C]C,2<=F,2A, | 
[V:4] C,,C,,2<=F,,2A,, | 
[V:1] [c2a2]>.[c2a2].[c2a2] | 
[V:2] [A2=f2]>.[A2f2].[A2f2] | 
[V:3] z C,2<=F,2A, | 
[V:4] z C,,2<=F,,2A,, | 
[V:1] [c2a2]>.[c2a2].[c2a2] | 
[V:2] [A2=f2]>.[A2f2].[A2f2] | 
[V:3] z C,2<=F,2A, | 
[V:4] z C,,2<=F,,2A,, | 
[V:1] [c6a6]- | 
[V:2] [F6^d6]- | 
[V:3] [F,6A,6]- | 
[V:4] B,,6- | 
[V:1] [ca]c'2<b2a- | 
[V:2] [F2d2]z BB z | 
[V:3] [F,2A,2]z FF z | 
[V:4] B,,2z ^DD z | 
[V:1] aa2<g2e- | 
[V:2] z2z BB z | 
[V:3] z2z GG z | 
[V:4] E,2z EE z | 
[V:1] ee2<^d2f | 
[V:2] z2z BB z | 
[V:3] z2z AA z | 
[V:4] B,2z B,B, z | 
[V:1] .e.b2<e'2g'- | 
[V:2] [G2B2]z BB z | 
[V:3] E,2z EE z | 
[V:4] [K:clef=tenor]E6 | 
[V:1] g'f'2<^d'2b- | 
[V:2] B2z BB z | 
[V:3] ^D2z DD z | 
[V:4] F6- | 
[V:1] bb2<c'2a- | 
[V:2] B2z BB z | 
[V:3] ^D2z DD z | 
[V:4] F6 | 
[V:1] aa2<f2g- | 
[V:2] B2z BB z | 
[V:3] E2z EE z | 
[V:4] G6 | 
[V:1] gg2<e2=f- | 
[V:2] c2z cc z | 
[V:3] A,2z A,A, z | 
[V:4] A6 | 
[V:1] f=f2<^d2e- | 
[V:2] G2z GG z | 
[V:3] B,2z B,B, z | 
[V:4] B6 | 
[V:1] ee2<^c2^d | 
[V:2] [F2A2]z [FA][FA] z | 
[V:3] B,2z B,B, z | 
[V:4] B,6 | 
[V:1] e2z2z2 | 
[V:2] .E.B2<E2^D | 
[V:3] E,2z [E,G,][E,A,] z | 
[V:4] E4F2 | 
[V:1] z .=c'2<^d2e | 
[V:2] z6 | 
[V:3] [E,2A,2]z [E,A,][E,G,] z | 
[V:4] F4E2 | 
[V:1] z6 | 
[V:2] z .B2<E2^D | 
[V:3] [E,2G,2]z [E,G,][E,A,] z | 
[V:4] E4F2 | 
[V:1] z .c'2<^d2e | 
[V:2] z6 | 
[V:3] [E,2A,2]z [E,A,][E,G,] z | 
[V:4] F4E2 | 
[V:1] z .c'2<^d2e- | 
[V:2] z6 | 
[V:3] [E,2A,2]z [E,A,][E,G,] z | 
[V:4] F4E2- | 
[V:1] ec'^d4- | 
[V:2] z2A4- | 
[V:3] z2B,4- | 
[V:4] E2F4- | 
[V:1] d4e2 |[1 
[V:2] A4G2 | 
[V:3] B,4E,2 | 
[V:4] F4E2 | 
[V:1] e2z2z2 | 
[V:2] G2z2z2 | 
[V:3] E,2z2z2 | 
[V:4] E2z2z2 | 
[V:1] F2z2z2 | 
[V:2] ^D2z2z2 | 
[V:3] B,2z2z2 | 
[V:4] [K:clef=bass]B,,2z2z2 | 
[V:1] E2z2e2- | 
[V:2] E2z2E2- | 
[V:3] E,2G,2G,2 | 
[V:4] E,,2E,,2E,,2 | 
[V:1] e.d2<_e2c :|][2 
[V:2] E.=D2<_E2C :|]  
[V:3] A,2z A,A, z :|]  
[V:4] F,,2z F,F, z :|]  
[V:1] =e2z2z2 | 
[V:2] G2z2z2 | 
[V:3] E,2z2z2 | 
[V:4] [K:clef=tenor]E2z2z2 | 
[V:1] F2z2z2 | 
[V:2] ^D2z2z2 | 
[V:3] B,2z2z2 | 
[V:4] [K:clef=bass]B,,2z2z2 | 
[V:1] E2 | 
[V:2] E2 | 
[V:3] E,2 | 
[V:4] E,,2 | 
[V:1]  [K:E] z2z2 [I:setbarnb 59]| 
[V:2]  [K:E] (3GFE (3DCD | 
[V:3]  [K:E] .E z .B, z | 
[V:4]  [K:E] z2z2 | 
[V:1] z6 | 
[V:2] (3EDC (3B,B,B, (3B,CD | 
[V:3] EF .G z .G z | 
[V:4] z6 | 
[V:1] z6 | 
[V:2] (3EDE (3FEF (3GFG | 
[V:3] GB .A z .G z | 
[V:4] z6 | 
[V:1] z6 | 
[V:2] (3ABA (3GFE (3DCB, | 
[V:3] .F z .E z .F z | 
[V:4] z6 | 
[V:1] z6 | 
[V:2] (3EFG (3ABc (3BcB | 
[V:3] G4E2 | 
[V:4] z6 | 
[V:1] z6 | 
[V:2] (3ABA (3GFE (3DCB, | 
[V:3] F4GF | 
[V:4] z6 | 
[V:1] z6 | 
[V:2] E2.B z .F z | 
[V:3] E2z2E2 | 
[V:4] z2(3D,C,B,, (3^A,,G,,A,, | 
[V:1] z6 | 
[V:2] Bc .d z .d z | 
[V:3] D z B, zF,2- | 
[V:4] (3B,,^A,,G,, (3F,,F,,F,, (3F,,G,,A,, | 
[V:1] z6 | 
[V:2] df .e z .d z | 
[V:3] F, z F zF2- | 
[V:4] (3B,,^A,,B,, (3C,B,,C, (3D,C,D, | 
[V:1] z6 | 
[V:2] .c z .B z .c z | 
[V:3] F z F, zF2- | 
[V:4] (3E,F,E, (3D,C,B,, (3^A,,G,,F,, | 
[V:1] z6 | 
[V:2] d4B2 | 
[V:3] F2B,2B2- | 
[V:4] (3B,,C,D, (3E,F,G, (3F,G,F, | 
[V:1] z6 | 
[V:2] c4dc | 
[V:3] B2A2A2- | 
[V:4] (3^E,F,E, (3F,G,F, (3=E,F,E, | 
[V:1] z2(3gfe (3dcd | 
[V:2] B2z2A2 | 
[V:3] A2G2z2 | 
[V:4] D,2E, z .B,, z | 
[V:1] (3edc (3BBB (3Bcd | 
[V:2] G z E zB,2- | 
[V:3] z6 | 
[V:4] E,F, .G, z .G, z | 
[V:1] (3ede (3fef (3gfg | 
[V:2] B,2B2B2- | 
[V:3] z6 | 
[V:4] G,B, .A, z .G, z | 
[V:1] (3aba (3gfe (3dcB | 
[V:2] B2B,2B,2 | 
[V:3] z6 | 
[V:4] .F, z .E, z .F, z | 
[V:1] (3efg (3abc' (3bc'b | 
[V:2] B,2B2G2 | 
[V:3] z2z2B,2 | 
[V:4] G,4E,2 | 
[V:1] (3aba (3gfe (3dcB | 
[V:2] A4BA | 
[V:3] B,6- | 
[V:4] F,4G,F, | 
[V:1] e2b z f z | 
[V:2] G2z2z2 | 
[V:3] B,2(3DCB, (3^A,G,A, | 
[V:4] E,2z2E,2 | 
[V:1] bc' d' z d' z | 
[V:2] z6 | 
[V:3] (3B,^A,G, (3F,F,F, (3F,G,A, | 
[V:4] D, z B,, zF,,2- | 
[V:1] d'f' e' z d' z | 
[V:2] z6 | 
[V:3] (3B,^A,B, (3CB,C (3DCD | 
[V:4] F,,2F,2F,2- | 
[V:1] c' z b z c' z | 
[V:2] z6 | 
[V:3] (3EFE (3DCB, (3^A,G,F, | 
[V:4] F,2F,2E,2 | 
[V:1] d'4b2 | 
[V:2] z6 | 
[V:3] (3B,CD (3EFG (3FGF | 
[V:4] D,2B,,2B,2- | 
[V:1] c'4d'c' | 
[V:2] z6 | 
[V:3] (3^EFE (3FGF (3=EFE | 
[V:4] B,2A,4- | 
[V:1] b4c'b | 
[V:2] z6 | 
[V:3] (3DEDE2G2- | 
[V:4] A,2(3G,A,G, (3E,F,E, | 
[V:1] a4ba | 
[V:2] z2z2f2- | 
[V:3] G2F2D2- | 
[V:4] (3C,D,C, (3D,E,D, (3C,D,C, | 
[V:1] g4ag | 
[V:2] f2e4- | 
[V:3] D2C4- | 
[V:4] (3^B,,C,B,, (3C,D,C, (3=B,,C,B,, | 
[V:1] f6 | 
[V:2] e2E2D2 | 
[V:3] C2A,4 | 
[V:4] (3A,,B,,A,, (3F,,G,,A,, (3B,,^A,,B,, | 
[V:1] e2z2z2 | 
[V:2] .E .e.d.c.B.A | 
[V:3] .G, z .E z .B, z | 
[V:4] E,,2z2z2 | 
[V:1] z6 | 
[V:2] .G.c.B.A.G.F | 
[V:3] EF .G z .G z | 
[V:4] z6 | 
[V:1] z6 | 
[V:2] .E.B,.D.B,.E.B, | 
[V:3] GB .A z .G z | 
[V:4] z6 | 
[V:1] z6 | 
[V:2] .A,.B,.G,.B,.D.B, | 
[V:3] .F z .E z .F z | 
[V:4] z6 | 
[V:1] z6 | 
[V:2] .E.F.G.A.B.c | 
[V:3] G4E2 | 
[V:4] z6 | 
[V:1] z6 | 
[V:2] .A.G.A.B.c.d | 
[V:3] F4GF | 
[V:4] z6 | 
[V:1] z6 | 
[V:2] e2.B z .F z | 
[V:3] .E.G.F.E.D.C | 
[V:4] z6 | 
[V:1] z6 | 
[V:2] Bc .d z .d z | 
[V:3] .B,.^A,.B,.F,.G,.A, | 
[V:4] z6 | 
[V:1] z6 | 
[V:2] df .e z .d z | 
[V:3] .B,.^B,.C.^A,.=B,.D | 
[V:4] z6 | 
[V:1] z6 | 
[V:2] .c z .B z .c z | 
[V:3] .E.C.D.F.E.C | 
[V:4] z6 | 
[V:1] z6 | 
[V:2] d4B2 | 
[V:3] .B,.F.B.^A.G.F | 
[V:4] z6 | 
[V:1] z6 | 
[V:2] c4dc | 
[V:3] .^E.B.F.=A.=E.A | 
[V:4] z6 | 
[V:1] z .b .g'.f'.e'.d' | 
[V:2] .B.B.b.a.g.f | 
[V:3] DA, .G, z .F, z | 
[V:4] z2.E, z .B,, z | 
[V:1] .e'.d'.c'.b.a.g | 
[V:2] .g.b.a.g.f.e | 
[V:3] G,A,.B,2B,2- | 
[V:4] E,F,.G,2G,2- | 
[V:1] .g.g.a.g.a.b | 
[V:2] .e.^e.f.e.f.g | 
[V:3] B,=D.C2.B,2 | 
[V:4] G,B,.A,2.G,2 | 
[V:1] .c'.f.b.c'.b.a | 
[V:2] .a.d.g.a.g.f | 
[V:3] .A,2.G,2.A,2 | 
[V:4] .F,2.E,2.F,2 | 
[V:1] .g.f.g.a.b.c' | 
[V:2] .=e.d.e.f.g.e | 
[V:3] B,4G,2 | 
[V:4] G,4E,2 | 
[V:1] .a.g.a.b.c'.d' | 
[V:2] .d.e.f.B.c.d | 
[V:3] A,4B,A, | 
[V:4] F,4G,F, | 
[V:1] e' z.b2.^a2 | 
[V:2] e z.d2.c2 | 
[V:3] G,.G.F.D.=G.F | 
[V:4] E,.E,.F,.B,,.E,.E, | 
[V:1] bc'.d'2.d'2 | 
[V:2] de.f2.b2 | 
[V:3] .F.E.D.G.F.E | 
[V:4] .D,.C,.B,,.E,.D,.C, | 
[V:1] d'f'.e'2.d'2 | 
[V:2] bd'.c'2.b2 | 
[V:3] .D.B,.^A,.F,.B,.F, | 
[V:4] .B,,.F,,.^A,,.F,,.B,,.F,, | 
[V:1] .c'2.b2.c'2 | 
[V:2] .^a2.g2.a2 | 
[V:3] .E.G.F.G.F.E | 
[V:4] .C,.E,.D,.E,.D,.C, | 
[V:1] d'4b2 | 
[V:2] b4B2- | 
[V:3] .D.C.D.E.F.D, | 
[V:4] .B,,.^A,,.B,,.C,.D,.B,, | 
[V:1] c'4d'c' | 
[V:2] B2=A2a2- | 
[V:3] .G,.^E,.A,.B,.A,.G, | 
[V:4] .^E,.C,.F,.G,.F,.=E, | 
[V:1] b2>.c'2.b.a | 
[V:2] a2.g.a.g.f | 
[V:3] F,D,G,2z B | 
[V:4] D,B,, E, z B,, z | 
[V:1] .g.f.e.c.B.A | 
[V:2] .e.d.e.A.G.F | 
[V:3] .B.A.G zz2 | 
[V:4] E,F,.G,2.G,2 | 
[V:1] G2z2z2 | 
[V:2] E2z2z2 | 
[V:3] z2E z B, z | 
[V:4] G,B, .A, z .G, z | 
[V:1] z6 | 
[V:2] z6 | 
[V:3] EF .G z .G z | 
[V:4] .F, z .E, z .F, z | 
[V:1] z6 | 
[V:2] z6 | 
[V:3] GB .A z .G z | 
[V:4] G,4E,2 | 
[V:1] z6 | 
[V:2] z6 | 
[V:3] .F z .E z .F z | 
[V:4] F,4G,F, | 
[V:1] z6 | 
[V:2] z2e z B z | 
[V:3] G4E2 | 
[V:4] E, z B,, zE,2- | 
[V:1] z6 | 
[V:2] ef .g z .g z | 
[V:3] F4GF | 
[V:4] E, z B,, zE,2- | 
[V:1] z2e' z b z | 
[V:2] gb a z g z | 
[V:3] E z B, zE2- | 
[V:4] E, z B,, zE,2- | 
[V:1] e'f' g' z g' z | 
[V:2] f z e z f z | 
[V:3] E z B, zE2- | 
[V:4] E, z B,, zE,2- | 
[V:1] g'b'.a'2.g'2 | 
[V:2] g4e2 | 
[V:3] E2B,2E2- | 
[V:4] E,2B,,2E,2- | 
[V:1] .f'2.e'2.f'2 | 
[V:2] f4gf | 
[V:3] E2B,2E2- | 
[V:4] E,2B,,2E,2- | 
[V:1] g'2-g'2e'2 | 
[V:2] e2z2z2 | 
[V:3] E2E2B,2 | 
[V:4] E,6- | 
[V:1] f'4g'f' | 
[V:2] z6 | 
[V:3] EF.G2-.G2 | 
[V:4] E,2E2B,2 | 
[V:1] e'2e2B2 | 
[V:2] z6 | 
[V:3] GA.B2-.B2 | 
[V:4] EF.G2-.G2 | 
[V:1] ef.g2-.g2 | 
[V:2] z2e2B2 | 
[V:3] B2>A2GF | 
[V:4] G2>F2ED | 
[V:1] gba2g2 | 
[V:2] egf2e2 | 
[V:3] E2D2E2 | 
[V:4] C2^B,2C2 | 
[V:1] f2e2f2 | 
[V:2] d2c2d2 | 
[V:3] F2G2F2 | 
[V:4] D2E2D2 | 
[V:1] g4e2 | 
[V:2] e4c2 | 
[V:3] E2F2=G2 | 
[V:4] C2=B,2A,2 | 
[V:1] f4gf | 
[V:2] d4B2- | 
[V:3] A2F2D2 | 
[V:4] =A,6 | 
[V:1] e2z2e2 | 
[V:2] B2z2G2 | 
[V:3] E2A,2G,2 | 
[V:4] G,2F,2E,2 | 
[V:1] f4gf | 
[V:2] A4BA | 
[V:3] F,2E,2F,2 | 
[V:4] D,2C,2D,2 | 
[V:1] e2z2E2 | 
[V:2] G2z2G,2 | 
[V:3] G,2F,2E,2 | 
[V:4] E,2D,2C,2 | 
[V:1] F4GF | 
[V:2] A,4B,A, | 
[V:3] D,2C,2D,2 | 
[V:4] B,,6 | 
[V:1] E2-E2z2 | 
[V:2] G,2B,2z2 | 
[V:3] E,2G,2z2 | 
[V:4] E,2z2E,,2 | 
[V:1] z2D2z2 | 
[V:2] z2B,2z2 | 
[V:3] z2A,2z2 | 
[V:4] F,,4G,,F,, | 
[V:1] z2E2z2 | 
[V:2] z2B,2z2 | 
[V:3] z2G,2z2 | 
[V:4] E,,2z2E,,2 | 
[V:1] z2D2z2 | 
[V:2] z2A,2z2 | 
[V:3] z2B,2z2 | 
[V:4] F,,4=G,,F,, | 
[V:1] z2E2z2 | 
[V:2] z2=G,2z2 | 
[V:3] z2B,2z2 | 
[V:4] E,,2=G,,F,,.E,,2 | 
[V:1] E2z2E2 | 
[V:2] =G,2z2B,2 | 
[V:3] B,2z2=G,2 | 
[V:4] =G,,F,,.E,,2=G,,F,, | 
[V:1] z2=GF.E2 | 
[V:2] z6 | 
[V:3] z2=G,F,.E,2 | 
[V:4] .E,,2=G,,F,,.E,,2 | 
[V:1] =GF.E2=GF |]  
[V:2] z6 |]  
[V:3] =G,F,.E,2=G,F, |]  
[V:4] =G,,F,,.E,,2=G,,F,, |]  


